src/assets/icons/arrows,fancy,right.svg

<svg width="48" height="48" viewBox="0 0 48 48" fill="none" xmlns="http://www.w3.org/2000/svg">
<path opacity="0.8" d="M6 29C4.89543 29 4 28.1046 4 27L4 21C4 19.8954 4.89543 19 6 19L30 19C31.1046 19 32 19.8954 32 21L32 27C32 28.1046 31.1046 29 30 29L6 29Z" fill="black"/>
<path d="M27.4142 40.5858L42.5858 25.4142C43.3668 24.6332 43.3668 23.3668 42.5858 22.5858L27.4142 7.41421C26.6332 6.63316 25.3668 6.63316 24.5858 7.41421L20.4142 11.5858C19.6332 12.3668 19.6332 13.6332 20.4142 14.4142L28.5858 22.5858C29.3668 23.3668 29.3668 24.6332 28.5858 25.4142L20.4142 33.5858C19.6332 34.3668 19.6332 35.6332 20.4142 36.4142L24.5858 40.5858C25.3668 41.3668 26.6332 41.3668 27.4142 40.5858Z" fill="black"/>
</svg>

<svg xmlns="http://www.w3.org/2000/svg" width="48" height="48" fill="none" viewBox="0 0 48 48">
  <path fill="#000" d="M6 29a2 2 0 01-2-2v-6a2 2 0 012-2h24a2 2 0 012 2v6a2 2 0 01-2 2H6z" opacity=".8"/>
  <path fill="#000" d="M27.414 40.586l15.172-15.172a2 2 0 000-2.828L27.414 7.414a2 2 0 00-2.828 0l-4.172 4.172a2 2 0 000 2.828l8.172 8.172a2 2 0 010 2.828l-8.172 8.172a2 2 0 000 2.828l4.172 4.172a2 2 0 002.828 0z"/>
</svg>
